src/assets/icons/days,simple,friday.svg

<svg width="48" height="48" viewBox="0 0 48 48" fill="none" xmlns="http://www.w3.org/2000/svg">
<rect opacity="0.2" x="5" y="5" width="38" height="38" rx="4" fill="black"/>
<path d="M5 13C5 9.22876 5 7.34315 6.17157 6.17157C7.34315 5 9.22876 5 13 5H35C38.7712 5 40.6569 5 41.8284 6.17157C43 7.34315 43 9.22876 43 13V15H5V13Z" fill="black"/>
<path d="M15.4107 36H18.486V29.9915H24.4022V27.456H18.486V23.9901H25.0414V21.4545H15.4107V36ZM26.8773 36H29.9029V29.8281C29.9029 28.4858 30.883 27.5625 32.2182 27.5625C32.6373 27.5625 33.2125 27.6335 33.4966 27.7259V25.0412C33.2267 24.9773 32.8503 24.9347 32.5449 24.9347C31.3233 24.9347 30.3219 25.6449 29.9242 26.9943H29.8105V25.0909H26.8773V36Z" fill="black"/>
</svg>

<svg xmlns="http://www.w3.org/2000/svg" width="48" height="48" fill="none" viewBox="0 0 48 48">
  <rect width="38" height="38" x="5" y="5" fill="#000" opacity=".2" rx="4"/>
  <path fill="#000" d="M5 13c0-3.771 0-5.657 1.172-6.828C7.343 5 9.229 5 13 5h22c3.771 0 5.657 0 6.828 1.172C43 7.343 43 9.229 43 13v2H5v-2zM15.41 36h3.076v-6.009h5.916v-2.535h-5.916V23.99h6.555v-2.535h-9.63V36zm11.467 0h3.026v-6.172c0-1.342.98-2.265 2.315-2.265.42 0 .994.07 1.279.163V25.04a4.542 4.542 0 00-.952-.106c-1.222 0-2.223.71-2.62 2.06h-.114V25.09h-2.934V36z"/>
</svg>
